X: 1
T: Charlie Hardie's Reel
C: James Scott Skinner
M: 4/4
L: 1/8
S: handwritten MS from Barbara McOwen labelled "Pinewoods Scottish 2016 Tuesday 7/12/2016"
R: Reel
K: E
[|\
"E"BeGe BeGe | "A"cfAf cfAf |\
"E"egBg egBe | "B7"abBb "E"geec |\
"E"BeGe BeGe |
"A"cfAf cfAf |\
"E"egBg egBe | "B7"abc'd' "E"e'ee |]|\
a |\
"E"gbef gabg | "B7"fbBc defa |
"E"gbef "A"gabe | "B7"abc'd' "E"e'eea |\
"E"gbef gabg | "B7"fbBc defa |\
"E"gbag "A"fedc | "B7"BAGF "E"E3E |]
